X: 135
T:Dinny Delaney's
S:Dangerous Reel,  Mike and Mary Rafferty
Z:Lesl NJ what exit.
R:hornpipe; reel
M:C|
L:1/8
N:Posted to the woodenflute mailing list January 2002
K:Ador
dc| A2AG EFGE | A2AB cdec | A2{A}AG EFGE | A2BG A2dc |
ABAG EFGE | A2AB cdec | A2AG EFGE | A2BG A2 (3Bcd |
eAAG EFGE | A2AB cdd2 | eaag  EFGE | A2BG A2 (3Bcd |
eaag EFGE | A2AB cdd2 |eaag  EFGE | A2BG A2dc ||
